X: 3008
T: A New Scotch Tune.
%R: minuet, waltz
B: Henry Playford "Apollo's Banquet", London 1687 (5th Edition)
F: https://archive.org/details/apollosbanquetco01rugg
Z: 2017 John Chambers <jc:trillian.mit.edu>
M: 3/4
L: 1/8
K: Bb
% - - - - - - - - - -
F2 |\
(GB) (cd) cB | G3 gfd | B3 d (fdcB) | (cd) F2 F2 |\
(GB) (B/c/d) cB | f3 gfd | f3 gbd | c4 :|
|: g2 |\
f2 (ga) (be) | d3 d g2 | (cd) (ed) cB | (f3 g) F2 |\
(BA2) FDB, | (dc3) (bg) | (fd) (Bd) cB | B4 |]
% - - - - - - - - - -

%%sep 1 1 500
%%sep 1 1 500

